!!!!SEGMENT: pl-wtm--r-1227--025_lodwigowski-edward-stefan--o-mym-lubem-zawsze-marze.krn
!!!cenid: 18xx:1965
!!!COM: Łodwigowski, Edward Stefan
!!!COM-rismID: pe30111147
!!!CDT: 1815/08/14-1895/11/12
!!!CNT: Polish
!!!OTL: O mym lubem zawsze marzę
!!!PDT:
!!!AGN:
!!!SMS-siglum: PL-Wtm
!!!SMS-shelfmark: R 1227
!!!SMS-shelfwork: 025 W
!!!SMS-variant:
!!!SMS-altvar:
!!!NIFC-rismSourceID: 1001084170
!!!NIFC-islandoraID:
!!!URL-pdf-islandora:
!!!URL-scan:
!!!ONB-nifc: UWAGA: No. 96
!!!OMD: No 96. Moderato
!!!AIN: 1 forte
!!!key:
**kern	**fing	**kern	**fing	**dynam
*part1	*	*part1	*	*part1
*staff2	*	*staff1	*	*
*Iforte	*	*Iforte	*	*
*I"Fortepian	*	*I"Fortepian	*	*
*clefF4	*	*clefG2	*	*
*k[b-]	*	*k[b-]	*	*
*F:	*	*F:	*	*
*M3/4	*	*M3/4	*	*
=1	=1	=1	=1	=1
*all\right	*	*all\right	*	*
*^	*	*	*	*
!LO:N:vis=2	!	!	!LO:TX:a:i:t=O mym lubem zawsze marzę. J. Nowakowskiego	!	!
4C/	2.C\	.	(8cc\L	3	mf
.	.	.	8cc#X\J	.	.
4B- 4G 4E\	.	.	4.dd\	.	.
4B- 4G 4E\	.	.	.	.	.
.	.	.	8e/)	.	.
=2	=2	=2	=2	=2	=2
!LO:N:vis=2	!	!	!	!	!
4F/	2.F\	.	8g/L	2	.
.	.	.	8f/J	.	.
4c 4A\	.	.	4a/	.	.
4c 4A\	.	.	4f/	.	.
=3	=3	=3	=3	=3	=3
.	.	.	16qqf/LL	1	f
.	.	.	16qqb-/	2	.
.	.	.	16qqdd/JJ	4	.
!LO:N:vis=2	!	!	!	!	!
4F/	2.F\	.	8ff\L|	.	.
.	.	.	16r	.	.
.	.	.	(16ff\Jk	4	.
4d 4B-\	.	.	4ee\	.	.
4d 4B-\	.	.	4dd\)	.	>
=4	=4	=4	=4	=4	=4
!LO:N:vis=2	!	!	!	!	!
4F/	2.F\	.	(8dd\L	4	.
.	.	.	8cc\J	.	.
4c 4A\	.	.	2a/)	.	.
4c 4A\	.	.	.	.	]
=5	=5	=5	=5	=5	=5
!LO:N:vis=2	!	!	!	!	!
4C/	2.C\	.	(8cc\L	3	.
.	.	.	8cc#X\J	.	.
4B- 4G 4E\	.	.	4.dd\	.	.
4B- 4G 4E\	.	.	.	.	.
.	.	.	8e/)	.	.
=6	=6	=6	=6	=6	=6
!LO:N:vis=2	!	!	!	!	!
4F/	2.F\	.	(<8g/L	2	.
.	.	.	8f/J	.	.
4c 4A\	.	.	4a/	3	.
4c 4A\	.	.	4cc\)	.	.
!!LO:LB:g=original
=7	=7	=7	=7	=7	=7
!LO:N:vis=2	!	!	!	!	!
4G/	2.G\	.	(8bn\L	.	.
.	.	.	8g\J)	1	.
!LO:SIC:v:n=2:s=4Bn	!	!	!	!	!
4d 4B-\	.	.	(4.ff\	5	.
!LO:SIC:v:n=2:s=4Bn	!	!	!	!	!
4f 4B-\	.	.	.	.	.
.	.	.	8ee\)	.	.
*clefG2	*	*	*	*	*
=8	=8	=8	=8	=8	=8
*	*	*^	*	*	*
*	*2\right	*	*	*	*	*
8f/L	2c\	2	5	(8dd\L	.	.
8g/J	.	1	.	8ee\J	.	.
4e/	.	.	.	4cc\)	.	.
4r	4ryy	.	.	4r	.	.
*	*	*v	*v	*	*	*
*clefF4	*	*	*	*	*
=9	=9	=9	=9	=9	=9
!	!	!	!LO:TX:a:i:t=a tempo	!	!
!LO:N:vis=2	!	!	!LO:N:vis=8	!	!
4C/	2.C\	.	(8.ccc\L	3	f
.	.	.	16ccc#X\Jk	.	.
4B- 4G 4E\	.	.	4.ddd\	.	.
4B- 4G 4E\	.	.	.	.	.
.	.	.	8ee\	.	.
=10	=10	=10	=10	=10	=10
!LO:N:vis=2	!	!	!	!	!
4F/	2.F\	.	8gg\L	.	.
.	.	.	8ff\J	.	.
4c 4A\	.	.	4aa\	.	.
4c 4A\	.	.	4ff\)	.	.
=11	=11	=11	=11	=11	=11
.	.	.	(16qqff/LL	.	.
.	.	.	16qqbb-/	.	.
.	.	.	16qqddd/JJ)	.	.
4ryy	2.F/	.	8fff\L|	.	sf
.	.	.	16r	.	.
.	.	.	(16fff\Jk	.	.
4d 4B-\	.	.	4eee\	.	.
4d 4B-\	.	.	4ddd\	.	.
=12	=12	=12	=12	=12	=12
!LO:N:vis=2	!	!	!	!	!
4F/	2.F\	.	8ddd\L	.	.
.	.	.	8ccc\J	.	.
4c 4A\	.	.	4aa\)	.	.
4c 4A\	.	.	4r	.	.
=13	=13	=13	=13	=13	=13
!LO:N:vis=2	!	!	!LO:TX:a:i:t=dol.	!	!
4C/	2.C\	.	8cc\L	2	p
.	.	.	8cc#X\J	.	.
4B- 4G 4E\	.	.	4.dd\	.	.
4B- 4G 4E\	.	.	.	.	.
.	.	.	8ccn\	.	.
!!LO:LB:g=original
=14	=14	=14	=14	=14	=14
!LO:N:vis=2	!	!	!	!	!
4F/	2.F\	.	(8b-/L	2	.
.	.	.	8a/J	1	.
4d 4Bn\	.	.	4g#X/	2	.
4c 4A\	.	.	4a/)	1	.
*v	*v	*	*	*	*
=15	=15	=15	=15	=15
4A 4E 4C\	.	(8.ee\L	5	.
!	!	!LO:TX:b:i:t=ralentan	!	!
.	.	16ee\Jk	.	.
4Bn 4F 4D\	.	4.dd\	.	.
4A 4F#X 4D#X\	.	.	.	.
.	.	8cc\)	.	.
=16	=16	=16	=16	=16
*^	*	*	*	*
*	*	*^	*	*	*
(<8G#X/L	4E\	3	5	(8bn/L	2	.
8d/J	.	1	.	8e/J	1	.
4c/)	4A\	.	.	2a/)	3	.
4r	4ryy	.	.	.	.	.
*	*	*v	*v	*	*	*
=17	=17	=17	=17	=17	=17
!LO:N:vis=2	!	!	!LO:TX:a:i:t=a tempo	!	!
4AA/	2.AA\	.	8.a\L	3	p
.	.	.	16a\Jk	2	.
4G 4E\	.	.	(4bn\	1	.
4G 4E\	.	.	4cc#X\	.	.
=18	=18	=18	=18	=18	=18
!LO:N:vis=2	!	!	!	!	!
4D/	2.D\	.	8dd\L	.	.
.	.	.	8ee\J	.	.
4A 4F\	.	.	4ff\	.	.
4A 4F\	.	.	4dd\	.	.
=19	=19	=19	=19	=19	=19
!LO:N:vis=2	!	!	!	!	!
4AA/	2.AA\	.	8ee\L	.	.
.	.	.	8a\J	.	.
.	.	.	8qcc/	.	.
4G 4C#X\	.	.	4.b-\	.	.
4G 4C#\	.	.	.	.	.
.	.	.	8a\	.	.
=20	=20	=20	=20	=20	=20
!LO:N:vis=2	!	!	!	!	!
4D/	2.D\	.	8ff\L	.	.
.	.	.	8ee\J	.	.
*	*	*	*2\right	*	*
4A 4F\	.	.	2dd\)	.	.
4A 4F\	.	.	.	.	.
!!LO:LB:g=original
=21	=21	=21	=21	=21	=21
!LO:N:vis=2	!	!	!	!	!
4D/	2.D\	.	8.ff\L	5	f
.	.	.	16ff\Jk	.	.
4Bn 4F\	.	.	(4.ee\	.	.
4B 4F\	.	.	.	.	.
.	.	.	8dd\)	.	.
=22	=22	=22	=22	=22	=22
!LO:N:vis=2	!	!	!	!	!
4E/	2.E\	.	(8dd\L	4	.
.	.	.	8cc\J	.	.
4c 4A\	.	.	4bn\	.	.
4c 4A\	.	.	4a\)	.	.
=23	=23	=23	=23	=23	=23
!LO:N:vis=2	!LO:N:vis=2	!	!	!	!
4E/	2.E\	.	(8g#X/L	2	.
.	.	.	8a/J	.	.
!	!	!	!LO:SIC:v:s=4bn	!	!
4d 4G#X\	.	.	4b-/	.	.
4d 4G#\	.	.	4e/	.	.
=24	=24	=24	=24	=24	=24
!LO:N:vis=2	!LO:N:vis=2	!	!	!	!
4A/	2.A\	.	8cc\L	5	.
.	.	.	8bn\J	.	.
*	*	*	*	*ela	*
4e 4c\	.	.	2a\)	3-1	.
4e 4c\	.	.	.	.	.
=25	=25	=25	=25	=25	=25
!LO:N:vis=2	!	!	!LO:TX:a:i:t=a tempo.	!	!
4F#X/	2.F#\	.	(8b-X\L	2	.
.	.	.	8a\J)	.	.
4d 4c 4A\	.	.	(4.dd^\	4	.
4d 4c 4A\	.	.	.	.	.
.	.	.	8cc\)	.	.
=26	=26	=26	=26	=26	=26
!LO:N:vis=2	!	!	!	!	!
4G/	2.G\	.	(8cc\L	4	.
.	.	.	8b-\J	.	.
4d 4B-\	.	.	4a/	.	.
4d 4B-\	.	.	4g/)	.	.
=27	=27	=27	=27	=27	=27
!LO:N:vis=2	!	!	!	!	!
4D/	2.D\	.	(8f#X/L	2	.
.	.	.	8a/J)	1	.
4c 4A 4F#X\	.	.	(4.ee-X^\	4	sf
4c 4A 4F#\	.	.	.	.	.
.	.	.	8dd\)	.	.
=28	=28	=28	=28	=28	=28
!LO:N:vis=2	!	!	!	!	!
4G/	2.G\	.	(8dd\L	4	.
.	.	.	8b-\J	.	.
4d 4B-\	.	.	4g/)	.	.
4d 4B-\	.	.	4r	.	.
!!LO:LB:g=original
=29	=29	=29	=29	=29	=29
!LO:N:vis=2	!LO:N:vis=2	!	!	!	!
4E/	2.E\	.	(8g#X/L	2	.
.	.	.	8bn/J)	3	.
4d 4Bn 4G#X\	.	.	(4.ee^\	5	.
4d 4B 4G#\	.	.	.	.	.
.	.	.	8dd\)	.	.
=30	=30	=30	=30	=30	=30
!LO:N:vis=2	!	!	!	!	!
4A/	2.A\	.	(8dd\L	.	.
.	.	.	8cc\J	.	.
4e 4c\	.	.	4bn\	.	.
4e 4c\	.	.	4a\)	.	.
=31	=31	=31	=31	=31	=31
!LO:N:vis=2	!	!	!	!	!
4E/	2.E\	.	8g#X/L	2	.
.	.	.	8bn/J	1	.
4d 4Bn 4G#X\	.	.	(4.ff^\	4	.
4d 4B 4G#\	.	.	.	.	.
.	.	.	8ee\)	.	.
=32	=32	=32	=32	=32	=32
!LO:N:vis=2	!	!	!	!	!
4A/	2.A\	.	(8ee\L	4	.
.	.	.	8cc\J	.	.
4e 4c\	.	.	4a\)	.	.
4e 4c\	.	.	4r	.	.
=33	=33	=33	=33	=33	=33
!LO:N:vis=2	!	!	!	!	!
4C/	2.C\	.	(8cc\L	4	.
.	.	.	8b-\J	.	.
4B- 4E\	.	.	4a/	.	.
4B- 4E\	.	.	4g/	.	.
=34	=34	=34	=34	=34	=34
!LO:N:vis=2	!	!	!	!	!
4F/	2.F\	.	8a/L	.	.
.	.	.	8b-/J	.	.
4c 4A\	.	.	4dd\	.	.
4c 4A\	.	.	4cc|\)	.	.
.	.	.	.	.	<
=35	=35	=35	=35	=35	=35
.	.	.	16qqb-/LL	2	.
.	.	.	16qqdd/JJ	4	.
!LO:N:vis=2	!	!	!	!	!
4F/	2.F\	.	8ff|\L	.	[ sf
.	.	.	16r	.	.
.	.	.	(16ff\Jk	4	.
4d 4B-\	.	.	4ee\	.	.
4d 4B-\	.	.	4dd\)	.	.
=36	=36	=36	=36	=36	=36
!LO:N:vis=2	!	!	!	!	!
4F/	2.F\	.	(8dd\L	5	>
.	.	.	8cc\J	.	.
4c 4A\	.	.	2a/)	.	]
4c 4A\	.	.	.	.	.
!!LO:LB:g=original
=37	=37	=37	=37	=37	=37
!LO:N:vis=2	!	!	!	!	!
4C/	2.C\	.	(8g/L	1	.
.	.	.	8a/J	.	.
4B- 4G 4E\	.	.	4.b-\	.	.
4B- 4G 4E\	.	.	.	.	.
.	.	.	8bn\	1	.
=38	=38	=38	=38	=38	=38
!LO:N:vis=2	!	!	!	!	!
4F/	2.F\	.	8dd\L	3	.
.	.	.	8cc\J	.	.
4c 4A\	.	.	4.ff^\	.	.
4c 4A\	.	.	.	.	.
!	!	!	!LO:TX:b:i:t=ralen	!	!
.	.	.	8a/)	.	.
*v	*v	*	*	*	*
=39	=39	=39	=39	=39
4Bn 4F 4D\	.	(8a/L	2	.
.	.	8g/J	.	.
4B-X 4G 4E\	.	4.dd\	.	.
4B- 4G 4E 4C\	.	.	.	.
.	.	8cc\	.	.
=40	=40	=40	=40	=40
*^	*	*	*	*
!LO:N:vis=2	!	!	!	!	!
4F/	2.F\	.	8dd\L	.	.
.	.	.	8cc\J	.	.
4c 4A\	.	.	4a\)	.	.
4c 4A\	.	.	4r	.	.
=41	=41	=41	=41	=41	=41
!LO:N:vis=2	!	!	!LO:TX:a:i:t=a tempo	!	!
4C/	2.C\	.	8gg\L	1	f
.	.	.	8aa\J	.	.
4B- 4G 4E\	.	.	4.bb-\	.	.
4B- 4G 4E\	.	.	.	.	.
.	.	.	8bbn\	1	<
=42	=42	=42	=42	=42	=42
!LO:N:vis=2	!	!	!	!	!
4F/	2.F\	.	8ccc\L	.	.
.	.	.	8ddd\J	.	.
4c 4A'\	.	.	4eee\	.	.
4F 4C 4AA'\	.	.	[4fff\	.	[ sf
*v	*v	*	*	*	*
=43	=43	=43	=43	=43
8G 8D 8BB-\|	.	8fff\L]	.	.
8r	.	8gg\J	.	.
4B- 4E 4C\	.	(4.ddd^<\	5	.
4B- 4E 4C\	.	.	.	.
.	.	8ccc\	.	.
=44	=44	=44	=44	=44
4A 4F\|	.	4ff\)	.	.
4FF/|	.	4fff 4ccc 4aa\|	.	.
4r	.	4r	.	.
==	==	==	==	==
*-	*-	*-	*-	*-
!!!system-decoration: {s1,s2}
!!!RDF**kern: < = below
!!!RDF**kern: | = vertical stroke
!!!ENC: Marta Lawrence
!!!END: 2021-05-02
!!!ENC: Andrzej Kubiczek
!!!END: 2021-04-18
!!!YEC: Copyright 2022 Narodowy Instytut Fryderyka Chopina (https://polishscores.org)
!!!YEM: Licence CC BY 4.0 (https://creativecommons.org/licenses/by/4.0)
